contributed-vectors/swiggy.svg

<svg xmlns="http://www.w3.org/2000/svg" xml:space="preserve" style="fill-rule:evenodd;clip-rule:evenodd;stroke-linejoin:round;stroke-miterlimit:2" viewBox="0 0 192 192"><path d="M164.5 21.5c0-5.519-4.481-10-10-10h-133c-5.519 0-10 4.481-10 10v133c0 5.519 4.481 10 10 10h133c5.519 0 10-4.481 10-10v-133Z" style="fill:#fff" transform="translate(8 8)"/><path d="M76.942 124.25a5.48 5.48 0 0 1 4.713-8.267c3.53-.003 7.339-.003 10.079-.003a3.843 3.843 0 0 1 3.844 3.844v6.988c0 1.056.856 1.912 1.912 1.912h.001a1.915 1.915 0 0 0 1.912-1.912v-14.764c0-.658-.534-1.191-1.191-1.191H72.475a5.138 5.138 0 0 1-4.571-2.791c-5.953-11.617-10.485-23.028-10.485-30.86 0-20.689 16.319-37.597 36.78-38.54l1.352-.039h.04l.409-.003.496.003c21.066.267 36.762 17.263 37.928 35.487.235 3.673-22.035 3.712-29.086 3.633a2.143 2.143 0 0 1-2.112-2.143V62.425a2.12 2.12 0 0 0-2.121-2.121h-.005a2.121 2.121 0 0 0-2.122 2.121v18.817c0 .644.522 1.165 1.166 1.165h21.035a10.658 10.658 0 0 1 10.244 13.604C122.169 125.648 96 153.376 96 153.376s-9.49-13.115-19.058-29.126Zm17.509-85.595-.024.001.024-.001Zm.214-.008-.044.002.069-.003-.025.001Zm.219-.007-.045.002.092-.003-.047.001Zm.22-.005-.038.001.109-.003-.071.002Zm.22-.005-.028.001.131-.002-.103.001Zm.358-.004-.153.001H95.587l.066-.001h.029Z" style="fill:#f8c18c" transform="translate(12.738 12.749) scale(.8672)"/></svg>

<?xml version="1.0" encoding="UTF-8" standalone="no"?>
<!DOCTYPE svg PUBLIC "-//W3C//DTD SVG 1.1//EN" "http://www.w3.org/Graphics/SVG/1.1/DTD/svg11.dtd">
<svg width="100%" height="100%" viewBox="0 0 192 192" version="1.1" xmlns="http://www.w3.org/2000/svg" xmlns:xlink="http://www.w3.org/1999/xlink" xml:space="preserve" xmlns:serif="http://www.serif.com/" style="fill-rule:evenodd;clip-rule:evenodd;stroke-linejoin:round;stroke-miterlimit:2;">
    <g id="Layer1">
        <g transform="matrix(1,0,0,1,8,8)">
            <path d="M164.5,21.5C164.5,15.981 160.019,11.5 154.5,11.5L21.5,11.5C15.981,11.5 11.5,15.981 11.5,21.5L11.5,154.5C11.5,160.019 15.981,164.5 21.5,164.5L154.5,164.5C160.019,164.5 164.5,160.019 164.5,154.5L164.5,21.5Z" style="fill:white;"/>
        </g>
        <g transform="matrix(0.867201,0,0,0.867201,12.7383,12.7487)">
            <path d="M76.942,124.25C75.94,122.557 75.923,120.456 76.897,118.747C77.871,117.038 79.687,115.983 81.655,115.983C85.185,115.98 88.994,115.98 91.734,115.98C92.754,115.98 93.731,116.385 94.452,117.106C95.173,117.827 95.578,118.804 95.578,119.824C95.578,122.133 95.578,124.971 95.578,126.812C95.578,127.868 96.434,128.724 97.49,128.724C97.49,128.724 97.491,128.724 97.491,128.724C97.998,128.724 98.484,128.522 98.843,128.164C99.201,127.805 99.403,127.319 99.403,126.812L99.403,112.048C99.403,111.39 98.869,110.857 98.212,110.857C93.898,110.857 79.005,110.857 72.475,110.857C70.549,110.857 68.784,109.78 67.904,108.066C61.951,96.449 57.419,85.038 57.419,77.206C57.419,56.517 73.738,39.609 94.199,38.666L95.551,38.627L95.591,38.627L96,38.624L96.496,38.627C117.562,38.894 133.258,55.89 134.424,74.114C134.659,77.787 112.389,77.826 105.338,77.747C104.167,77.73 103.226,76.776 103.226,75.604C103.226,72.261 103.226,65.777 103.226,62.425C103.226,61.253 102.276,60.304 101.105,60.304C101.103,60.304 101.102,60.304 101.1,60.304C99.928,60.304 98.978,61.253 98.978,62.425C98.978,67.007 98.978,77.698 98.978,81.242C98.978,81.886 99.5,82.407 100.144,82.407C103.42,82.407 113.01,82.407 121.179,82.407C124.526,82.407 127.68,83.98 129.693,86.654C131.707,89.328 132.348,92.793 131.423,96.011C122.169,125.648 96,153.376 96,153.376C96,153.376 86.51,140.261 76.942,124.25ZM94.451,38.655L94.427,38.656L94.451,38.655ZM94.665,38.647L94.621,38.649L94.69,38.646L94.665,38.647ZM94.884,38.64L94.839,38.642L94.931,38.639L94.884,38.64ZM95.104,38.635L95.066,38.636L95.175,38.633L95.104,38.635ZM95.324,38.63L95.296,38.631L95.427,38.629L95.324,38.63ZM95.682,38.626L95.529,38.627L95.551,38.627L95.558,38.627L95.587,38.627L95.653,38.626L95.682,38.626Z" style="fill:rgb(248,193,140);"/>
        </g>
    </g>
</svg>
